X: 42016
T: Walter Bulwer's
R: polka
M: 2/4
K: Gmajor
Add c/d/|eB B2|c/d/ e c/d/ e|fd d>B|Add c/d/|e B B2|c/d/ eA B/c/|dd d2:|
ee f2|ee c2|dd B/c/ d|ee c/d/e/f/|ee f2|ee c2|dd B/d/c/B/|Ac A2:|
Add c/d/|eB B2|c/d/ e c/d/ e|fd d>B|Add c/d/|e B B2|c/d/ eA B/c/|dd d2:|
|:B2 Bc|d2 de|d2 d>d|dc c2|A2 AB|c2 cd|c2 c>d|cB B2|B2 Bc|d2 de|ddg g/d/|
fe e>e|ee f>e|ed B>e|ed cA|1 GF ED:|2 G2 G2||

